X: 02121
T: SILVER SUSIE
C: Bob McQuillen Feb.'76
B: Bob's Note Book 1&2 #121
%R: jig
Z: 2019 John Chambers <jc:trillian.mit.edu>
M: 6/8
L: 1/8
K: D
AG \
| F2A d2f | edc dAG | F2A dcd | efe eAG |\
| F2A d2f | e2f gfe | fga gec | edd d :|
|: de \
| f2a gfe | fdB Ade | f2a g2f | fed ede |\
| f2a gfe | fdB Ade | fgf eag | fdd d :|
%%begintext align
%% For Sue Koallick,
%% with many thanks [face] QUACK
%%endtext

%%sep 1 1 500

%%sep 1 1 500

